X: 39734
T: Thadelo's
R: barndance
M: 4/4
K: Dmajor
A A/B/ A/F/D/E/|F F/E/ F>G|A A/B/ A/F/D/F/|G/E/E/D/ E>F|
G G/G/ G/F/E/F/|G G/F/ G B|A/B/A/G/ F/G/F/E/|1 D D/E/ D/E/F/G/:|
f d/f/ e c/e/|d A A>A|B B/B/ B e/d/|c B/c/ A/B/d/e/|
f d/f/ e c/e/|d A A>A|B B/B/ c B/c/|1 e d d>e:|2 e d d2||

